X:1
T:Title
%%score { ( 1 3 ) | ( 2 4 ) }
L:1/8
M:4/4
K:Bb
V:1 treble nm="Grand Piano"
V:3 treble 
V:2 bass 
V:4 bass 
V:1
 z4 z2[Q:1/4=100] [DF]2 | [DF]3 [DF] [_D=E][=DF] [DB]>[_Ec] | [Fd]4 [DB]2 [DB]2 | A3 B c2 F2 | %4
 [Dd]6 [DF]2 | [DF]3 [DF] [_D=E][=DF] [DB]>[Ec] | [Fd]4 [DB]2 [FB]2 | [Ec]2 [Ge]2 [Fd]2 [Ec]2 | %8
 [B,DB]6 z2 | B6 z2 | F4 [DB]2 z2 | z4 z2 A2 | B4 z4 | B6 z2 | F4 [DB]2 z2 | z4 z2 A2 | %16
[M:3/4] [DB]6 |] %17
V:2
 z4 z2 [B,,B,]2 | [B,,B,]3 [B,,B,] [B,,B,][B,,B,] [B,,B,]>[B,,B,] | [B,,B,]6 [B,,B,]2 | %3
 [F,C]3 [F,B,D] [F,A,E]2 [F,A,E]2 | [B,,B,]6 [B,,B,]2 | %5
 [B,,B,]3 [B,,B,] [B,,B,][B,,B,] [B,,B,]>[B,,B,] | [B,,B,]6 [D,B,]2 | %7
 [E,G,]2 [C,G,]2 [F,A,]2 [F,A,]2 | B,,6 z2 | G6[K:treble] z2 | D4[K:bass] z4 | %11
 [E,G,]2 [D,G,]2 [C,G,]2 .[F,F]2 | [B,,F,]2 B,,2 [B,,F,]2[K:treble] D2 | G6[K:bass][K:treble] z2 | %14
 D4[K:bass] z4 | [E,G,]2 [D,G,]2 [C,G,]2 .[F,F]2 |[M:3/4] [B,,F,]6 |] %17
V:3
 x8 | x8 | x8 | x8 | x8 | x8 | x8 | x8 | x8 | z2 B,2 B,2 A>G | z2 B,>B, B,B, [FB]2 | %11
 [Ec]2 [Fd]2 [Ge]2 z E | D2- [F,D-]2 [DF]2 B2 | z2 B,2 B,2 AG | z2 B,2 B,B, [B,FB]2 | %15
 [Ec]2 [Fd]2 [Ge]2 z E |[M:3/4] x6 |] %17
V:4
 x8 | x8 | x8 | x8 | x8 | x8 | x8 | x8 | x8 | z2 E,2 E,2[K:treble] F>E | %10
 z2[K:bass] B,,>B,, B,,B,, D,2 | x8 | x6[K:treble] x2 | z2[K:bass] E,2 E,2[K:treble] FE | %14
 z2[K:bass] B,,2 B,,B,, D,2 | x8 |[M:3/4] x6 |] %17

